assets/images/book-img2.svg

<svg width="50" height="50" viewBox="0 0 50 50" fill="none" xmlns="http://www.w3.org/2000/svg">
<g clip-path="url(#clip0_122_2108)">
<path d="M33.3333 48.9585C33.3333 49.5338 32.867 50.0002 32.2917 50.0002V50.0002C31.7164 50.0002 31.25 49.5338 31.25 48.9585V40.8973C31.25 40.5933 31.4387 40.3214 31.7235 40.215L31.925 40.1398C39.6208 37.2564 44.7917 29.8169 44.7917 21.6252C44.7917 13.9419 40.2437 6.92311 33.3333 3.70228V21.9169C33.3333 22.4691 32.8856 22.9169 32.3333 22.9169H17.6667C17.1144 22.9169 16.6667 22.4691 16.6667 21.9169V3.70228C9.75625 6.92311 5.20833 13.9419 5.20833 21.6252C5.20833 29.8169 10.3771 37.2564 18.075 40.1398L18.5069 40.3011C18.6531 40.3557 18.75 40.4953 18.75 40.6514V48.9585C18.75 49.5338 18.2836 50.0002 17.7083 50.0002V50.0002C17.133 50.0002 16.6667 49.5338 16.6667 48.9585V41.931C16.6667 41.8657 16.6271 41.8068 16.5668 41.7815C8.49321 38.3969 3.125 30.3995 3.125 21.6252C3.125 12.5689 8.8375 4.34603 17.3417 1.1627V1.1627C18.0237 0.908443 18.75 1.41281 18.75 2.1407V20.1558C18.75 20.5301 19.0534 20.8335 19.4277 20.8335H30.5723C30.9466 20.8335 31.25 20.5301 31.25 20.1558V2.1407C31.25 1.41281 31.9763 0.908443 32.6583 1.1627V1.1627C41.1625 4.34603 46.875 12.571 46.875 21.6252C46.875 30.2966 41.6319 38.2092 33.716 41.6606C33.4856 41.7611 33.3333 41.987 33.3333 42.2383V48.9585Z" fill="#004B98"/>
</g>
<defs>
<clipPath id="clip0_122_2108">
<rect width="50" height="50" fill="white"/>
</clipPath>
</defs>
</svg>

<svg width="50" height="50" fill="none" xmlns="http://www.w3.org/2000/svg"><g clip-path="url(#a)"><path d="M33.333 48.959a1.042 1.042 0 0 1-2.083 0v-8.062c0-.304.189-.576.474-.682l.201-.075c7.696-2.884 12.867-10.323 12.867-18.515 0-7.683-4.548-14.702-11.459-17.923v18.215a1 1 0 0 1-1 1H17.667a1 1 0 0 1-1-1V3.702C9.757 6.923 5.208 13.942 5.208 21.625c0 8.192 5.17 15.631 12.867 18.515l.432.161a.374.374 0 0 1 .243.35v8.307a1.042 1.042 0 1 1-2.083 0v-7.027a.162.162 0 0 0-.1-.15C8.493 38.398 3.125 30.4 3.125 21.626c0-9.056 5.713-17.279 14.217-20.462a1.044 1.044 0 0 1 1.408.978v18.015c0 .374.303.678.678.678h11.144a.678.678 0 0 0 .678-.678V2.14c0-.728.726-1.233 1.408-.978 8.505 3.183 14.217 11.408 14.217 20.462 0 8.672-5.243 16.584-13.159 20.036a.633.633 0 0 0-.383.577v6.72Z" fill="#004B98"/></g><defs><clipPath id="a"><path fill="#fff" d="M0 0h50v50H0z"/></clipPath></defs></svg>
